X: 031360
T: Cat that Ate the Candle
S: "Ceol Rince na hEireann" 1/153
Z: B.Black
L: 1/8
M: 4/4
R: reel
K: Dmix
A2 GB ADDE|FGAB c2 dB|(3ABA GB AGAB|cAGE FEFG|
(3ABA GB ADDE|FGAB cAdB|(3ABA GB A3B|cAGE F3G||
Adde fedf|edce dcAd|Adde fefg|af (3gfe fde^c|
Adde fedf|edce dcAd|Adde f3g|afge fde^c||
